X:1
T:Shine in His Name
T:Shine in His Name
T:Talmage J. Bittikofer
T:Helen E. Duff, 1917
T:Public Domain Courtesy of the Cyber Hymnal™
T:Public Domain Courtesy of the Cyber Hymnal™
C:Talmage J. Bittikofer
Z:Public Domain
Z:Courtesy of the Cyber Hymnal™
%%score ( 1 2 ) ( 3 4 )
L:1/8
Q:1/4=110
M:4/4
K:G
V:1 treble 
V:2 treble 
V:3 bass 
V:4 bass 
V:1
 G | [GB]2 [Gc]2 [Gd]3 [GB] | [DA]2 [DB]2 [DG]3 [DG] | [DA]2 [DB]2 [Fc]2 [GB]2 | %4
w: 1.~When|clouds hang low, and|dark thy path, Then|trust and know they’ll|
w: 2.~With|grace bear wrong, that|Christ may reign; Then|lift a song, shine|
w: 3.~Then|God be praised, your|“faith made sight,” The|ban- ner raised, “God’s|
 [Gd]2 [GB]2 [FA]3 [FA] | [GB]2 [Gc]2 [Gd]3 [Gd] | [Gc]2 [GB]2 !fermata![Ge]3 [Gc] | %7
w: lift at last; What-|e’er the load, then|look to God, Though|
w: in His Name; Then|shine for Him who|died for you; The|
w: love and light”; And|from the heart will|come the song, That|
 [GB]2 [FA]2 [Gd]3 G | [FB]2 [FA]2 G4 ||[M:12/8]"^Refrain" [DB]4 [DA][DG] [DG]3 [DF]3 | %10
w: long the road, e’er|on- ward plod.||
w: vic- tory win, He’ll|see you through.|Shine through the sun- shine,|
w: God made right to|come from wrong.||
 [Fc]4 [FB][FA] [GB]6 | [Gd]4 [Gc][GB] [FA]3 [Fc]3 | [G^c]4 [GB][Gc] [Fd]6 | %13
w: |||
w: Shine through the rain;|Shine through the sha- dows,|Shine through your pain;|
w: |||
 [Gd]4 [Ge][Gd] [Fc]3 [Fc]2 [Fc] | [Dc]4 [Dd][Dc] [DB]6 | [DB]4 [Dc][Dd] [Gd]3 !fermata![Ge]3 | %16
w: |||
w: Shine in the dark- ness, The|vic- to- ry gain;|Shine in your tri- als,|
w: |||
 [Fd]4 [Fc][FA] !fermata!G6 |] %17
w: |
w: Shine in His name.|
w: |
V:2
 G | x8 | x8 | x8 | x8 | x8 | x8 | x7 G | x4 G4 ||[M:12/8] x12 | x12 | x12 | x12 | x12 | x12 | %15
 x12 | x6 G6 |] %17
V:3
 G, | G,2 [G,A,]2 [G,B,]3 [G,D] | [F,C]2 [F,D]2 [G,B,]3 [G,B,] | [F,D]2 [G,D]2 [A,D]2 [G,D]2 | %4
 [G,B,]2 [G,D]2 [D,D]3 [D,D] | G,2 [G,A,]2 [G,B,]3 [=F,B,] | [E,C]2 [D,C]2 [C,C]3 [E,C] | %7
 [D,D]2 [C,D]2 [B,,D]3 [B,,D] | [D,D]2 [D,C]2 [G,,G,B,]4 || %9
[M:12/8] G,4 [G,C][G,B,] [D,B,]3 [D,A,]3 | [D,A,]4 [D,D][D,D] [G,D]6 | %11
 [G,B,]4 [G,E][G,D] [D,C]3 [D,A,]3 | [A,,A,]4 [A,,A,][A,,A,] [D,A,]6 | %13
 [G,B,]4 [G,C][G,B,] [D,A,]3 [D,A,]2 [D,A,] | [F,A,]4 [F,A,][F,A,] G,6 | %15
 G,4 [G,A,][G,B,] [E,C]3 [C,C]3 | [D,C]4 [D,A,][D,C] [G,,B,]6 |] %17
V:4
 G, | G,2 x6 | x8 | x8 | x8 | G,2 x6 | x8 | x8 | x8 ||[M:12/8] G,4 x8 | x12 | x12 | x12 | x12 | %14
 x6 G,6 | G,4 x8 | x12 |] %17

